icons/eex.svg

<svg xmlns="http://www.w3.org/2000/svg" width="16" height="16" fill="none"><path fill="#AE5EDB" d="M3 7v2l4 3.5v-2L4 8l3-2.5v-2L3 7ZM9 3.5v2L12 8l-3 2.5v2L13 9V7L9 3.5Z"/></svg>

<svg width="16" height="16" viewBox="0 0 16 16" fill="none" xmlns="http://www.w3.org/2000/svg">
<path d="M3 7V9L7 12.5V10.5L4 8L7 5.5V3.5L3 7Z" fill="#AE5EDB"/>
<path d="M9 3.5V5.5L12 8L9 10.5V12.5L13 9V7L9 3.5Z" fill="#AE5EDB"/>
</svg>
